X:3962
T:Debaxo del moln
R:Xiraldilla
C:Tradicional
S:Msica Tradicional Asturiana, (C) Tello & Tito. Asturies, 2001.
S:http://pagina.de/MusTradAst <telloytito@asturies.org>
A:Asturies
Z:Les cuarenta principales
M:3/4
L:1/4
Q:3/4=45
K:Cm
|G G/G/ A/F/|G3|G G/G/ A/F/|G3|
|GGG|F F/E/ D|FFF|E E/D/ C|
|EEE|D D/C/ B,/C/|B,/A,/ G,2-|G,3|C=B,C|D3|[C3=E3]-|[C/=E/] z5/2|
